symbolic/64x64/apps/mist.svg

<svg xmlns="http://www.w3.org/2000/svg" width="64" height="64"><path style="opacity:.2" d="M32 5A28 28 0 0 0 4 33a28 28 0 0 0 28 28 28 28 0 0 0 28-28A28 28 0 0 0 32 5z"/><path style="fill:#234780" d="M32 4A28 28 0 0 0 4 32a28 28 0 0 0 28 28 28 28 0 0 0 28-28A28 28 0 0 0 32 4z"/><path style="opacity:.2" d="m32 12 14 22-14 8-14-8z"/><path style="opacity:.2" d="m32 54 14-18-14 8-14-8z"/><path style="fill:#63bfd7" d="m32 11 14 22-14 8-14-8z"/><path style="fill:#63bfd7" d="m32 53 14-18-14 8-14-8z"/><path style="opacity:.1;fill:#fff" d="M32 4A28 28 0 0 0 4 32a28 28 0 0 0 .021.406A28 28 0 0 1 32 5a28 28 0 0 1 27.979 27.578A28 28 0 0 0 60 32 28 28 0 0 0 32 4z"/></svg>

<svg xmlns="http://www.w3.org/2000/svg" width="64" height="64" version="1.1">
 <path style="opacity:0.2" d="M 32,5 A 28,28 0 0 0 4,33 28,28 0 0 0 32,61 28,28 0 0 0 60,33 28,28 0 0 0 32,5 Z"/>
 <path style="fill:#234780" d="M 32,4 A 28,28 0 0 0 4,32 28,28 0 0 0 32,60 28,28 0 0 0 60,32 28,28 0 0 0 32,4 Z"/>
 <path style="opacity:0.2" d="M 32,12 46,34 32,42 18,34 Z"/>
 <path style="opacity:0.2" d="M 32,54 46,36 32,44 18,36 Z"/>
 <path style="fill:#63bfd7" d="M 32,11 46,33 32,41 18,33 Z"/>
 <path style="fill:#63bfd7" d="M 32,53 46,35 32,43 18,35 Z"/>
 <path style="opacity:0.1;fill:#ffffff" d="M 32 4 A 28 28 0 0 0 4 32 A 28 28 0 0 0 4.0214844 32.40625 A 28 28 0 0 1 32 5 A 28 28 0 0 1 59.978516 32.578125 A 28 28 0 0 0 60 32 A 28 28 0 0 0 32 4 z"/>
</svg>
